X: 12539
T: Farewell To Leitrim
R: reel
M: 4/4
K: Dmixolydian
d2 AG FGDG|Ec ~c2 Ec ~c2|dBcA B/c/d AG|FGEF DAfe|
d2 AG FGDG|Ec ~c2 Ec ~c2|dBcA (3Bcd AG|FGEG FD D2||
fd d/d/d fdgd|fd d/d/d ^cdeg|fd d/d/d fdgd|efge fdde|
fd d/d/d fdgd|ed^cd efge|afge fgef|abag fgfe||

